static/images/mobile/copyright/wikipedia-wordmark-shi.svg

<?xml version="1.0" encoding="UTF-8"?>
<svg width="120px" height="18px" viewBox="0 0 120 18" version="1.1" xmlns="http://www.w3.org/2000/svg" xmlns:xlink="http://www.w3.org/1999/xlink">
    <title>wikipedia-wordmark-shi</title>
    <g id="Page-1" stroke="none" stroke-width="1" fill="none" fill-rule="evenodd">
        <path d="M0.0507917252,0.04887 C0.0217680311,0.06977 0,0.18118 0,0.28564 C0,0.50153 0.130599851,0.55724 0.653030514,0.55724 C1.39313107,0.56424 2.1114563,0.85671 2.3146232,1.23974 C2.60486014,1.78991 2.61211164,2.01276 2.61211164,8.70534 C2.61211164,15.39792 2.60481847,15.62074 2.3146232,16.17094 C2.1114563,16.55396 1.39313107,16.84646 0.653030514,16.85343 C0.10158345,16.85343 -0.0145029911,16.90913 0.0145134099,17.15985 L0.0362803991,17.37574 L9.38185366,17.39664 L18.7201337,17.41054 L18.7201337,17.16679 C18.7201337,16.89519 18.7056203,16.88822 17.92199,16.82555 C16.9206793,16.74885 16.5071148,16.47734 16.2748794,15.75305 C16.1515311,15.38396 16.1442692,14.85468 16.1442692,8.70535 C16.1442692,2.55595 16.1515623,2.02675 16.2748794,1.65755 C16.4998112,0.95416 16.9061346,0.6756 17.8493708,0.58505 C18.7201337,0.50855 18.7201337,0.50855 18.7201337,0.24381 L18.7201337,0 L10.9562825,0 L10.9562825,0.23679 C10.9562825,0.50142 11.057866,0.55017 11.5730347,0.55713 C12.29136,0.56413 12.995203,0.82178 13.2128521,1.16302 C13.5466188,1.68534 13.5611323,2.01265 13.5683837,9.45042 L13.5683837,16.43552 L5.22416284,16.43552 L5.22416284,9.32512 C5.22416284,1.51132 5.22416284,1.49042 5.65226155,1.03082 C5.86267995,0.801 6.6317969,0.55725 7.14694481,0.55725 C7.66211356,0.55725 7.76369701,0.50155 7.76369701,0.23691 L7.76369701,0 L3.93259439,0 C1.82111725,0 0.072527458,0.02102 0.0507521337,0.04882 L0.0507917252,0.04887 Z M77.8255127,4.11076484 C80.2981005,4.11546462 82.2179166,4.14126774 82.2375752,4.1727 C82.2811154,4.2284 82.4987853,6.86781 82.4987853,7.2787 C82.4987853,7.46673 82.4697689,7.49463 82.3391586,7.48763 C82.1940454,7.48066 82.1577671,7.41102 82.0561836,6.8887 C81.7949839,5.55857 81.3450995,5.12679 80.0753584,5.0084 C79.7013498,4.97401613 78.1533812,4.95009761 76.8314966,4.94584672 L76.1604916,4.94548429 C75.3849979,4.94741072 74.8076053,4.95825161 74.8076053,4.9805 C74.8076053,4.9944 75.7363386,6.1644 76.8755318,7.5642 C78.0147043,8.964 78.9434583,10.1479 78.9434583,10.1827 C78.9434583,10.2175 77.8840732,11.4502 76.5852636,12.9196 C75.2864541,14.389 74.227069,15.6217 74.227069,15.6426 C74.227069,15.6635 75.620273,15.6705 77.3326053,15.6496 C79.9447586,15.6287 80.4962056,15.60085 80.8662507,15.50335 C81.7660092,15.25965 82.2811779,14.7791 82.6149447,13.87375 C82.7528065,13.48385 82.8108497,13.40715 82.9487114,13.40715 C83.0647979,13.40715 83.1228099,13.44894 83.130103,13.54644 C83.144606,13.62304 83.0285196,14.52834 82.8761444,15.56604 L82.6004209,17.44634 L77.2166022,17.46724 L71.8327835,17.48114 L71.8327835,17.30007 C71.8327835,17.16777 72.4858348,16.38087 74.4811422,14.11747 C75.939568,12.46697 77.1295321,11.08107 77.1150187,11.03237 C77.1005366,10.98357 75.9177926,9.50017 74.4811422,7.73827 C72.5946177,5.41917 71.8617791,4.47209 71.8472656,4.31887 L71.8254278,4.11 Z M64.6061472,3.69884 C65.3027492,3.61527 66.359165,3.67794 67.0368569,3.84508 C69.0031999,4.31868 70.9260236,5.96918 71.600819,7.75198 C71.9853879,8.78958 72.0797094,9.33278 72.0797094,10.52368 C72.0797094,11.45688 72.0506826,11.70759 71.8765425,12.36918 C71.3541431,14.40278 69.9610433,16.03932 68.0164756,16.90288 C67.1748437,17.27894 66.434691,17.41823 65.3027909,17.41823 C64.0764963,17.42519 63.234854,17.23716 62.2408052,16.74967 C61.6893894,16.4781 61.4426927,16.29704 60.8694808,15.74687 C59.3747558,14.31217 58.6709023,12.63387 58.6781394,10.48887 C58.6781394,8.50407 59.2441456,7.05557 60.4921113,5.78807 C61.667562,4.60421 63.0824372,3.8869 64.6061889,3.69887 Z M66.4129886,4.49985 C65.8398496,4.35355 64.7224212,4.36748 64.2145144,4.52765 C62.0667798,5.18925 61.0073946,7.16705 61.0073946,10.48895 C61.0146878,12.86375 61.5878268,14.62565 62.7270201,15.71905 C63.5106192,16.4781 64.1563774,16.72185 65.3753788,16.72185 C66.5943802,16.72185 67.3707695,16.42244 68.1761648,15.64245 C69.0903637,14.75805 69.5619922,13.55325 69.7288808,11.68685 C69.8159509,10.64215 69.7433942,9.24237 69.5402273,8.29525 C69.0903429,6.19205 68.0236646,4.90366 66.4129157,4.49975 Z M62.9444504,8.20899 C63.0387719,8.12542 63.3072439,8.20899 63.3290088,8.33434 C63.4160789,8.9611 63.5104004,9.19787 63.7498456,9.39984 C64.0908535,9.69239 64.2431765,9.72019 65.4476958,9.72019 C66.3256685,9.72019 66.5433488,9.69929 66.7682807,9.58787 C67.1238227,9.42073 67.3269792,9.10038 67.3922844,8.59896 C67.4358142,8.22283 67.4575895,8.19503 67.6244677,8.19503 L67.8058592,8.19503 L67.8276241,10.54193 L67.8421375,12.88887 L67.5836655,12.8881097 C67.4339887,12.8825247 67.4241888,12.83799 67.385012,12.5058 C67.2980149,11.67005 66.9279386,11.4193 65.7307125,11.3706 C65.3365231,11.3528051 64.9415808,11.35748 64.5479686,11.3846 C63.8441151,11.4751 63.4522947,11.85817 63.3652246,12.5337 C63.3289463,12.86797 63.3144329,12.88887 63.1185279,12.88887 L62.9081095,12.88887 L62.9085835,10.1734486 C62.9112453,9.07692485 62.924914,8.22757 62.9443879,8.20887 Z M114.438341,3.71887 C112.929176,3.99744 111.637555,5.06987 111.093381,6.49757 C110.926482,6.9572 110.904717,7.09648 110.904717,8.04357 C110.904717,8.95588 110.926492,9.14397 111.071605,9.55477 C111.419885,10.51582 112.203505,11.40727 113.103274,11.85987 C113.872391,12.24987 114.387602,12.35433 115.475951,12.35433 C116.29586,12.34733 116.499027,12.32643 117.006892,12.1663 C118.95146,11.55345 120.12691,9.8124 119.989069,7.751 C119.93833,6.99887 119.691581,6.2189 119.314274,5.6339 C118.791854,4.80517 117.739783,4.053 116.745723,3.7884 C116.157998,3.64215 115.062355,3.60734 114.438373,3.7187 L114.438341,3.71887 Z M116.419166,4.48493 C117.079448,4.79832 117.55836,5.48773 117.841335,6.52543 C118.051753,7.29148 118.051753,8.79573 117.841335,9.55483 C117.420488,11.10083 116.535232,11.84603 115.22194,11.75553 C114.148073,11.67883 113.386249,10.94769 113.001691,9.60363 C112.813037,8.96989 112.813037,7.11743 113.001691,6.48363 C113.335458,5.32063 113.959461,4.59633 114.859157,4.31083 C115.207437,4.19941 115.98814,4.28993 116.419166,4.48494 L116.419166,4.48493 Z M90.8574363,3.84887 C90.8139169,3.89757 90.2552079,5.19297 89.6021774,6.72507 C88.9491469,8.25717 87.9261026,10.69467 87.3093087,12.15017 C86.6925565,13.60567 86.061343,15.03337 85.9017267,15.33277 C85.4373497,16.1824 84.9512078,16.53057 84.0080028,16.68377 C83.7250278,16.72557 83.6161929,16.87877 83.7032525,17.10162 C83.7467927,17.21305 83.8338627,17.21305 84.7045632,17.16432 C85.8873071,17.08772 86.2572792,17.08772 87.5923462,17.16432 L88.6589204,17.22002 L88.7097121,17.03895 C88.7677553,16.79521 88.629904,16.64896 88.3469185,16.64896 C87.9188198,16.64896 87.3818862,16.45396 87.1787609,16.21718 C86.8232293,15.81326 86.7361488,16.07789 89.2466874,9.58028 C89.8489158,8.01338 90.3712944,6.68318 90.4003629,6.63448 C90.4656888,6.53001 90.4873912,6.59268 92.3304484,11.77408 C93.0342602,13.74498 93.6219648,15.49298 93.6510333,15.65308 C93.6747172,15.8079837 93.6722193,15.9655396 93.6436359,16.11968 C93.5783099,16.37039 93.1284672,16.57235 92.4899605,16.63503 L91.9675402,16.68383 L91.9675402,17.17132 L92.6568491,17.16432 C93.7234232,17.15032 96.6040173,17.15032 97.3731342,17.16432 L98.0624327,17.17132 L98.084208,16.94847 C98.1059833,16.73954 98.0915012,16.72561 97.8302598,16.68383 C97.1554644,16.5724 96.6475158,16.35651 96.2629574,16.02223 C95.6679701,15.49992 95.9001534,16.06403 92.5407314,7.03843 C91.2854725,3.65383 91.3290231,3.76523 91.1040809,3.76523 C91.0144393,3.76583219 90.9275896,3.79522842 90.8573842,3.84873 L90.8574363,3.84887 Z M99.1121908,4.07887 C99.1121908,4.23904 99.6637108,4.93546 104.27114,10.59037 L104.467045,10.84108 L101.789618,13.87748 C99.7072094,16.24528 99.1121908,16.96258 99.1121908,17.10888 L99.1121908,17.29692 L101.056759,17.25512 C102.123333,17.22722 103.131978,17.20642 103.306077,17.20642 C103.589052,17.20642 103.610827,17.19242 103.610827,17.01143 C103.610827,16.83035 103.589052,16.81643 103.124675,16.74678 C101.84764,16.55179 101.354309,15.93894 101.818676,15.13108 C101.905673,14.97091 102.950576,13.74518 104.13332,12.40108 L106.288348,9.96358 L104.242197,7.43558 C103.110297,6.04968 102.166977,4.87278 102.13072,4.82398 C102.050911,4.69166 107.637897,4.74048 108.066006,4.87268 C108.450575,4.99107 108.936707,5.44374 109.118098,5.85463 C109.229098,6.13657828 109.311708,6.4280826 109.364795,6.72515 C109.444603,7.22657 109.459085,7.24746 109.640518,7.24746 C109.792883,7.24746 109.829161,7.21966 109.807397,7.1221 C109.792914,7.0594 109.749364,6.5023 109.705813,5.8895 C109.662262,5.2767 109.611523,4.5802 109.582475,4.3365 L109.538925,3.90473 L99.112816,3.90473 L99.1121908,4.07887 Z M19.0103269,4.15887 C19.0103269,4.33298 19.3876339,4.82046 23.2767277,9.59787 C23.8426881,10.29429 24.3070547,10.87927 24.3070547,10.89317 C24.3070547,10.90707 23.1171218,12.28597 21.658696,13.93647 C19.757679,16.08837 19.0103373,16.98677 19.0103373,17.11217 L19.0103373,17.27931 L29.7417172,17.27931 L29.7852575,17.0495 C29.9521461,16.10934 30.3149292,13.3376 30.2713994,13.3028 C30.2180936,13.2638646 30.1559298,13.2376134 30.0900078,13.2262 C29.9811729,13.2123 29.9158677,13.3028 29.7707545,13.6928 C29.4224743,14.61207 29.0306539,15.023 28.2470027,15.2737 C27.7681123,15.42691 27.6520258,15.42691 24.5755164,15.45477 C21.8473495,15.47567 21.4047583,15.46177 21.4554979,15.37817 C21.4845247,15.32247 22.5438473,14.11767 23.7991062,12.68997 C25.0543651,11.26237 26.0919749,10.07147 26.1064571,10.04357 C26.1209705,10.01577 25.1922165,8.83877 24.0530128,7.43197 C22.9138195,6.02517 21.9850863,4.86917 21.9850863,4.84827 C21.9850863,4.82737 23.1823124,4.81347 24.6552203,4.81347 C27.6011404,4.81347 27.9639235,4.85527 28.4282901,5.21043 C28.8926671,5.5656 29.0958236,6.02524 29.2772256,7.05593 C29.3135039,7.27879 29.3497927,7.32057 29.5021574,7.32057 L29.683549,7.32057 L29.6327573,6.63808 C29.6109924,6.26898 29.5456872,5.52378 29.5021574,4.98758 L29.4223493,4.0126 L24.2199222,3.9917 L19.0102019,3.9778 L19.0103269,4.15887 Z M30.8377662,4.07887 C30.7820635,4.1587475 30.7661178,4.25821524 30.794226,4.35047 C30.8305043,4.48975 30.8958094,4.52457 31.2150628,4.56635 C32.2889301,4.70564 32.8331048,5.02599 32.9491704,5.59005 C33.0289785,6.00094 33.0289785,15.22145 32.9418772,15.56275 C32.8040155,16.15471 32.4702487,16.38452 31.5052268,16.55862 C30.9102499,16.66309 30.8304314,16.69791 30.7869016,16.84416 C30.7651366,16.92766 30.7723881,17.02522 30.801415,17.05308 C30.8304418,17.08088 32.2671339,17.10178 34.0012416,17.10178 C37.0269697,17.10878 37.1503285,17.10178 37.193775,16.97642 C37.2590801,16.7675 37.0921915,16.67 36.424658,16.54465 C35.7063328,16.41233 35.3434975,16.23126 35.1476238,15.9318 C35.0242755,15.72984 35.0097621,15.52787 34.9879971,13.4177 C34.9734837,12.0736 34.9879971,11.1056 35.0315374,11.0638 C35.0750672,11.022 35.2274424,11.036 35.4378608,11.0847 C35.7498626,11.1613 35.9457676,11.32845 37.8323129,13.16 C40.2920911,15.5418 40.4879648,15.7507 40.4879648,16.0223 C40.4879648,16.2939 40.263033,16.42623 39.5954891,16.57247 C39.0948337,16.68389 39.0730688,16.69783 39.0730688,16.89282 L39.0730688,17.10174 L42.388961,17.10174 C45.472722,17.10874 45.7048532,17.09474 45.7339217,16.98336 C45.7919649,16.76746 45.6178249,16.66997 44.9502913,16.55158 C43.6877393,16.32872 43.6805503,16.32176 40.6838906,13.41768 C39.2181717,11.99698 37.8250718,10.63198 37.5929406,10.38128 L37.1648524,9.92861 L39.3706198,7.90901 C42.5995149,4.96321 42.686512,4.90051 43.8619627,4.63581 L44.5149932,4.48957 L44.5149932,4.00904 L37.7162994,3.99514 C31.8681141,3.98114 30.9103124,3.99514 30.8377975,4.07864 L30.8377662,4.07887 Z M40.9640213,4.97725 C40.9858457,5.07831603 40.9858457,5.18260397 40.9640213,5.28367 C40.8987162,5.4717 36.0010186,10.12377 35.7180435,10.26997 C35.5628494,10.3379932 35.3951635,10.3758641 35.2246501,10.3814 L34.96344,10.3814 L34.9852049,7.923 C35.0069698,5.6736 35.0214832,5.4507 35.1448316,5.2557 C35.4278066,4.81 35.3915283,4.81695 38.2866254,4.81 L40.9205019,4.81 L40.9640213,4.97725 Z M46.2201053,4.13887 C46.2201053,4.2503 47.1198325,5.41327 48.8975325,7.60007 L51.5821487,10.89417 L51.3934952,11.11005 C51.2919117,11.22845 50.0946857,12.58645 48.7305502,14.13255 C47.2358669,15.83185 46.2491009,17.00875 46.2345145,17.11325 L46.2127496,17.28039 L56.9993493,17.28039 L57.2750728,15.34439 C57.427448,14.28579 57.5580478,13.38749 57.5653097,13.35259 C57.5726029,13.31779 57.4927531,13.26909 57.3911696,13.24117 C57.2097781,13.19237 57.1952647,13.21327 57.0066112,13.72169 C56.7236361,14.47382 56.4116343,14.84989 55.8529357,15.11449 C55.141862,15.44182 54.7428109,15.47663 51.5429844,15.45574 L48.6261328,15.43484 L51.0132918,12.72574 L53.4004508,10.02364 L53.1900324,9.76596 C53.0811974,9.62668 52.1597053,8.49846 51.1511744,7.25186 C50.1426122,6.00526 49.2864148,4.94676 49.2428641,4.89796 C49.177559,4.82126 49.6782143,4.80746 52.0654254,4.82826 L54.9605017,4.84916 L55.3813385,5.04416 C56.0125937,5.34361 56.3753872,5.95646 56.4914633,6.91756 C56.5349931,7.30756 56.5495065,7.32149 56.7454219,7.32149 C56.9558403,7.32149 56.9558403,7.32149 56.919562,6.95239 C56.8687702,6.52061 56.6656033,4.13889 56.6656033,4.04139 C56.6656033,4.00659 54.6919671,3.97869 51.4414009,3.97869 L46.2171985,3.97869 L46.2201053,4.13887 Z" id="wikipedia-wordmark-shi" fill="#000000" fill-rule="nonzero"></path>
    </g>
</svg>

<svg xmlns="http://www.w3.org/2000/svg" width="120" height="18"><path fill="#000" fill-rule="nonzero" d="M.05.049C.023.069 0 .18 0 .286c0 .216.13.271.653.271.74.007 1.458.3 1.662.683.29.55.297.773.297 7.465 0 6.693-.007 6.916-.297 7.466-.204.383-.922.675-1.662.682-.551 0-.668.056-.638.307l.021.216 9.346.02 9.338.015v-.244c0-.272-.014-.279-.798-.341-1.001-.077-1.415-.349-1.647-1.073-.123-.369-.13-.898-.13-7.048 0-6.149.007-6.678.13-7.047.225-.704.631-.982 1.574-1.073.871-.076.871-.076.871-.341V0h-7.764v.237c0 .264.102.313.617.32.718.007 1.422.265 1.64.606.334.522.348.85.355 8.287v6.986H5.224v-7.11c0-7.815 0-7.836.428-8.295.21-.23.98-.474 1.495-.474.515 0 .617-.055.617-.32V0H3.933C1.82 0 .073.021.05.049ZM77.827 4.11c2.472.004 4.392.03 4.412.062.043.055.26 2.695.26 3.106 0 .188-.028.216-.159.209-.145-.007-.181-.077-.283-.6-.261-1.33-.71-1.761-1.98-1.88-.375-.034-1.923-.058-3.245-.062h-.67c-.776.001-1.353.012-1.353.035 0 .013.928 1.183 2.068 2.583 1.139 1.4 2.067 2.584 2.067 2.619 0 .034-1.059 1.267-2.358 2.737-1.299 1.469-2.358 2.702-2.358 2.723 0 .02 1.393.027 3.106.007 2.612-.021 3.163-.05 3.533-.147.9-.243 1.415-.724 1.749-1.63.138-.39.196-.466.334-.466.116 0 .174.042.181.14.015.076-.101.981-.254 2.019l-.276 1.88-5.383.021-5.384.014v-.18c0-.133.653-.92 2.648-3.184 1.459-1.65 2.649-3.036 2.634-3.085-.014-.048-1.197-1.532-2.634-3.294-1.886-2.319-2.62-3.266-2.634-3.42l-.022-.208Zm-13.22-.412c.697-.084 1.753-.021 2.43.146 1.967.474 3.89 2.124 4.565 3.907.384 1.038.479 1.58.479 2.772 0 .933-.03 1.184-.203 1.845-.523 2.034-1.916 3.67-3.86 4.534-.842.376-1.582.515-2.714.515-1.227.007-2.068-.18-3.062-.668-.552-.272-.798-.453-1.372-1.003-1.494-1.435-2.198-3.113-2.19-5.258 0-1.985.565-3.433 1.813-4.7 1.176-1.185 2.59-1.902 4.114-2.09Zm1.807.8c-.573-.145-1.69-.132-2.198.029-2.148.661-3.208 2.639-3.208 5.961.008 2.375.58 4.137 1.72 5.23.784.76 1.43 1.003 2.648 1.003 1.22 0 1.996-.3 2.801-1.08.914-.884 1.386-2.089 1.553-3.955.087-1.045.014-2.445-.189-3.392-.45-2.103-1.516-3.391-3.127-3.795Zm-3.469 3.71c.095-.084.363 0 .385.125.087.627.181.864.42 1.066.342.292.494.32 1.699.32.878 0 1.095-.02 1.32-.132.356-.167.559-.488.624-.989.044-.376.066-.404.232-.404h.182l.022 2.347.014 2.347h-.258c-.15-.006-.16-.051-.199-.383-.087-.836-.457-1.087-1.654-1.135a10.39 10.39 0 0 0-1.183.014c-.704.09-1.096.473-1.183 1.149-.036.334-.05.355-.246.355h-.21v-2.716c.002-1.096.016-1.945.035-1.964Zm51.494-4.49a4.482 4.482 0 0 0-3.345 2.779c-.167.46-.188.598-.188 1.546 0 .912.021 1.1.167 1.51.348.962 1.132 1.853 2.031 2.306.77.39 1.285.494 2.373.494.82-.007 1.023-.028 1.53-.188 1.945-.613 3.12-2.354 2.983-4.415-.05-.752-.297-1.532-.675-2.117-.522-.829-1.574-1.581-2.568-1.846-.588-.146-1.684-.18-2.308-.07Zm1.981.766c.66.313 1.14 1.003 1.422 2.04.21.766.21 2.27 0 3.03-.42 1.546-1.306 2.291-2.62 2.2-1.073-.076-1.835-.807-2.22-2.151-.188-.634-.188-2.487 0-3.12.334-1.163.958-1.888 1.858-2.173.348-.112 1.13-.021 1.56.174Zm-25.562-.636c-.043.049-.602 1.344-1.255 2.876-.653 1.532-1.676 3.97-2.293 5.425-.616 1.456-1.248 2.883-1.407 3.183-.465.85-.95 1.198-1.894 1.35-.283.043-.392.196-.305.419.044.111.13.111 1.002.062 1.182-.076 1.552-.076 2.887 0l1.067.056.05-.181c.059-.244-.08-.39-.362-.39-.428 0-.965-.195-1.168-.432-.356-.404-.443-.14 2.068-6.637.602-1.567 1.124-2.897 1.153-2.946.066-.104.087-.041 1.93 5.14.704 1.971 1.292 3.719 1.321 3.88.024.154.021.312-.007.466-.066.25-.516.452-1.154.515l-.522.049v.487l.689-.007c1.066-.014 3.947-.014 4.716 0l.69.007.021-.223c.022-.208.008-.222-.254-.264-.675-.112-1.182-.327-1.567-.662-.595-.522-.363.042-3.722-8.984-1.256-3.384-1.212-3.273-1.437-3.273-.09 0-.176.03-.247.084Zm8.255.23c0 .16.552.856 5.16 6.511l.195.251-2.677 3.036c-2.083 2.368-2.678 3.086-2.678 3.232v.188l1.945-.042c1.066-.028 2.075-.049 2.25-.049.282 0 .304-.014.304-.195 0-.18-.022-.195-.486-.264-1.277-.195-1.77-.808-1.306-1.616.087-.16 1.132-1.386 2.314-2.73l2.155-2.437-2.046-2.528a281.825 281.825 0 0 1-2.111-2.612c-.08-.132 5.507-.084 5.935.049.385.118.87.57 1.052.982.111.282.194.573.247.87.08.502.094.522.276.522.152 0 .188-.027.166-.125-.014-.063-.058-.62-.101-1.232a53.068 53.068 0 0 0-.124-1.553l-.043-.432H99.113v.174Zm-80.102.08c0 .174.378.661 4.267 5.439.566.696 1.03 1.281 1.03 1.295 0 .014-1.19 1.393-2.648 3.043-1.901 2.152-2.649 3.05-2.649 3.176v.167h10.732l.043-.23c.167-.94.53-3.711.486-3.746a.433.433 0 0 0-.181-.077c-.109-.014-.174.077-.32.467-.348.92-.74 1.33-1.523 1.58-.479.154-.595.154-3.671.182-2.729.02-3.171.007-3.12-.077.029-.056 1.088-1.26 2.343-2.688a224.555 224.555 0 0 0 2.307-2.646c.015-.028-.914-1.205-2.053-2.612-1.14-1.407-2.068-2.563-2.068-2.584 0-.02 1.197-.035 2.67-.035 2.946 0 3.309.042 3.773.397.465.356.668.815.85 1.846.036.223.072.265.224.265h.182l-.051-.683c-.022-.369-.087-1.114-.13-1.65l-.08-.975-5.203-.021-5.21-.014v.18Zm11.828-.08a.314.314 0 0 0-.044.271c.037.14.102.175.421.216 1.074.14 1.618.46 1.734 1.024.08.41.08 9.631-.007 9.973-.138.592-.472.822-1.437.996-.595.104-.675.139-.718.285-.022.084-.015.181.014.21.03.027 1.466.048 3.2.048 3.026.007 3.15 0 3.193-.126.065-.209-.102-.306-.77-.431-.718-.133-1.08-.314-1.276-.613-.124-.202-.138-.404-.16-2.514-.015-1.344 0-2.312.044-2.354.043-.042.195-.028.406.02.312.077.508.244 2.394 2.076 2.46 2.382 2.656 2.59 2.656 2.862 0 .272-.225.404-.893.55-.5.112-.522.126-.522.32v.21h3.316c3.084.007 3.316-.007 3.345-.119.058-.216-.116-.313-.784-.431-1.262-.223-1.27-.23-4.266-3.134-1.466-1.421-2.859-2.786-3.091-3.037l-.428-.452 2.206-2.02c3.229-2.946 3.316-3.008 4.491-3.273l.653-.146v-.481l-6.799-.014c-5.848-.014-6.806 0-6.878.084Zm10.126.898a.725.725 0 0 1 0 .307c-.065.188-4.963 4.84-5.246 4.986a1.338 1.338 0 0 1-.493.111h-.262l.022-2.458c.022-2.25.036-2.472.16-2.667.283-.446.247-.439 3.142-.446h2.634l.043.167Zm5.256-.838c0 .111.9 1.274 2.678 3.461l2.684 3.294-.189.216c-.101.118-1.298 1.476-2.662 3.023-1.495 1.699-2.482 2.876-2.496 2.98l-.022.167h10.786l.276-1.936c.152-1.058.283-1.957.29-1.991.008-.035-.072-.084-.174-.112-.181-.049-.196-.028-.384.48-.283.753-.595 1.129-1.154 1.393-.711.328-1.11.363-4.31.342l-2.917-.021 2.387-2.71 2.387-2.701-.21-.258c-.109-.14-1.03-1.268-2.039-2.514-1.008-1.247-1.865-2.305-1.908-2.354-.065-.077.435-.09 2.822-.07l2.896.021.42.195c.632.3.994.912 1.11 1.874.044.39.059.403.254.403.21 0 .21 0 .175-.369-.051-.431-.254-2.813-.254-2.91 0-.035-1.974-.063-5.225-.063h-5.224l.003.16Z"/></svg>
